apps/48/system-upgrade.svg

<?xml version="1.0" encoding="UTF-8" standalone="no"?>
<!-- Created with Inkscape (http://www.inkscape.org/) -->

<svg
   xmlns:svg="http://www.w3.org/2000/svg"
   xmlns="http://www.w3.org/2000/svg"
   xmlns:xlink="http://www.w3.org/1999/xlink"
   version="1.0"
   width="48"
   height="48"
   id="svg2531">
  <defs
     id="defs2533">
    <linearGradient
       id="linearGradient5128">
      <stop
         id="stop5130"
         style="stop-color:#e5e5e5;stop-opacity:1"
         offset="0" />
      <stop
         id="stop5132"
         style="stop-color:#ababab;stop-opacity:1"
         offset="1" />
    </linearGradient>
    <linearGradient
       x1="86.132919"
       y1="105.105"
       x2="84.63858"
       y2="20.895"
       id="linearGradient2477"
       xlink:href="#linearGradient5128"
       gradientUnits="userSpaceOnUse"
       gradientTransform="matrix(0.3244803,0,0,0.3244803,3.2332655,2.5577454)" />
    <linearGradient
       id="linearGradient3397">
      <stop
         id="stop3399"
         style="stop-color:#aaa;stop-opacity:1"
         offset="0" />
      <stop
         id="stop3401"
         style="stop-color:#8c8c8c;stop-opacity:1"
         offset="1" />
    </linearGradient>
    <linearGradient
       x1="37.201294"
       y1="1"
       x2="37.201294"
       y2="45"
       id="linearGradient2482"
       xlink:href="#linearGradient3397"
       gradientUnits="userSpaceOnUse" />
    <linearGradient
       x1="63.9995"
       y1="3.1001"
       x2="63.9995"
       y2="122.8994"
       id="linearGradient3309"
       gradientUnits="userSpaceOnUse">
      <stop
         id="stop3311"
         style="stop-color:#f6f6f6;stop-opacity:1"
         offset="0" />
      <stop
         id="stop3313"
         style="stop-color:#d2d2d2;stop-opacity:1"
         offset="1" />
    </linearGradient>
    <linearGradient
       x1="20.758585"
       y1="1"
       x2="20.758585"
       y2="45.017357"
       id="linearGradient2480"
       xlink:href="#linearGradient3309"
       gradientUnits="userSpaceOnUse" />
    <linearGradient
       id="linearGradient10691">
      <stop
         id="stop10693"
         style="stop-color:black;stop-opacity:1"
         offset="0" />
      <stop
         id="stop10695"
         style="stop-color:black;stop-opacity:0"
         offset="1" />
    </linearGradient>
    <radialGradient
       cx="6.702713"
       cy="73.615715"
       r="7.228416"
       fx="6.702713"
       fy="73.615715"
       id="radialGradient2485"
       xlink:href="#linearGradient10691"
       gradientUnits="userSpaceOnUse"
       gradientTransform="matrix(3.3202297,0,0,0.6917145,1.7454545,-7.9210547)" />
    <linearGradient
       id="linearGradient4222">
      <stop
         id="stop4224"
         style="stop-color:white;stop-opacity:1"
         offset="0" />
      <stop
         id="stop4226"
         style="stop-color:white;stop-opacity:0"
         offset="1" />
    </linearGradient>
    <linearGradient
       id="linearGradient5432">
      <stop
         id="stop5434"
         style="stop-color:#ce5c00;stop-opacity:1"
         offset="0" />
      <stop
         id="stop5436"
         style="stop-color:#ce5c00;stop-opacity:0"
         offset="1" />
    </linearGradient>
    <linearGradient
       id="linearGradient2442">
      <stop
         id="stop2444"
         style="stop-color:#fcaf3e;stop-opacity:1"
         offset="0" />
      <stop
         id="stop2446"
         style="stop-color:#f57900;stop-opacity:0"
         offset="1" />
    </linearGradient>
    <linearGradient
       x1="22.720091"
       y1="26.022907"
       x2="1.4801675"
       y2="26.022907"
       id="linearGradient2579"
       xlink:href="#linearGradient4222"
       gradientUnits="userSpaceOnUse"
       gradientTransform="matrix(0,-0.702471,-0.675828,0,53.58587,48.860491)" />
    <linearGradient
       x1="23.177069"
       y1="23.890966"
       x2="49.242626"
       y2="23.890966"
       id="linearGradient2582"
       xlink:href="#linearGradient2442"
       gradientUnits="userSpaceOnUse"
       gradientTransform="matrix(0,0.6056796,-0.5854108,0,49.984886,17.731689)" />
    <linearGradient
       x1="22.760281"
       y1="29.13673"
       x2="22.760281"
       y2="42.241817"
       id="linearGradient2584"
       xlink:href="#linearGradient5432"
       gradientUnits="userSpaceOnUse"
       gradientTransform="matrix(1.1627077,0,0,1.2029644,9.535304,-3.2584615)" />
  </defs>
  <g
     id="layer1">
    <g
       id="g2569">
      <path
         d="m 47.999999,43 c 0,2.761424 -10.745167,5 -24,5 C 10.745166,48 0,45.761424 0,43 c 0,-2.761423 10.745166,-5 23.999999,-5 13.254833,0 24,2.238577 24,5 z"
         id="path10689"
         style="opacity:0.2;fill:url(#radialGradient2485);fill-opacity:1;fill-rule:nonzero;stroke:none;stroke-width:0.80000001;marker:none;visibility:visible;display:inline;overflow:visible" />
      <path
         d="M 21.03125,1.5 C 20.18512,1.5 19.5,2.2019069 19.5,3.0625 l 0,3.03125 C 17.987058,6.4968555 16.541437,7.105736 15.21875,7.875 L 13.0625,5.71875 C 12.758234,5.4144843 12.393747,5.2533367 12,5.25 11.606253,5.2466633 11.205402,5.3883479 10.90625,5.6875 L 6.6875,9.90625 C 6.0891956,10.504554 6.1102186,11.453968 6.71875,12.0625 L 8.875,14.21875 C 8.105736,15.541437 7.4968555,16.987058 7.09375,18.5 l -3.03125,0 C 3.2019067,18.5 2.5,19.185119 2.5,20.03125 l 0,5.9375 C 2.5,26.81488 3.201907,27.5 4.0625,27.5 l 3.03125,0 c 0.4031055,1.512942 1.011986,2.958563 1.78125,4.28125 L 6.71875,33.9375 C 6.1102187,34.546031 6.0891959,35.495445 6.6875,36.09375 l 4.21875,4.21875 c 0.598304,0.598304 1.547718,0.577279 2.15625,-0.03125 L 15.21875,38.125 c 1.322687,0.769264 2.768308,1.378144 4.28125,1.78125 l 0,3.03125 c 0,0.860593 0.685119,1.5625 1.53125,1.5625 l 5.9375,0 C 27.81488,44.5 28.5,43.798093 28.5,42.9375 l 0,-3.03125 c 1.512942,-0.403106 2.958563,-1.011986 4.28125,-1.78125 l 2.15625,2.15625 c 0.608531,0.608531 1.557946,0.629555 2.15625,0.03125 l 4.21875,-4.21875 c 0.598304,-0.598304 0.577281,-1.547719 -0.03125,-2.15625 L 39.125,31.78125 C 39.894264,30.458563 40.503144,29.012942 40.90625,27.5 l 3.03125,0 c 0.860593,0 1.5625,-0.685119 1.5625,-1.53125 l 0,-5.9375 C 45.5,19.18512 44.798093,18.5 43.9375,18.5 l -3.03125,0 C 40.503144,16.987058 39.894264,15.541437 39.125,14.21875 l 2.15625,-2.15625 c 0.608531,-0.608531 0.629555,-1.557946 0.03125,-2.15625 L 37.09375,5.6875 C 36.495446,5.0891956 35.54603,5.1102187 34.9375,5.71875 L 32.78125,7.875 C 31.458563,7.105736 30.012942,6.4968555 28.5,6.09375 l 0,-3.03125 C 28.5,2.2019067 27.814881,1.5 26.96875,1.5 l -5.9375,0 z M 24,16.5 c 3.588,0 6.5,2.912 6.5,6.5 0,3.588 -2.912,6.5 -6.5,6.5 -3.588,0 -6.5,-2.912 -6.5,-6.5 0,-3.588 2.912,-6.5 6.5,-6.5 z"
         id="rect3267"
         style="fill:url(#linearGradient2480);fill-opacity:1;fill-rule:nonzero;stroke:url(#linearGradient2482);stroke-width:1;stroke-linecap:butt;stroke-linejoin:round;stroke-miterlimit:4;stroke-opacity:1;stroke-dasharray:none;stroke-dashoffset:0;marker:none;visibility:visible;display:block;overflow:visible;enable-background:accumulate" />
      <path
         d="m 24,9.5 c -7.443901,0 -13.5,6.056099 -13.5,13.5 0,7.4439 6.056099,13.5 13.5,13.5 7.443901,0 13.5,-6.0561 13.5,-13.5 C 37.5,15.556099 31.443901,9.5 24,9.5 z"
         id="path28"
         style="fill:none;stroke:url(#linearGradient2477);stroke-width:1;stroke-miterlimit:4;stroke-dasharray:none" />
      <path
         d="m 24,10 c -7.168321,-5e-7 -13,5.83168 -13,13 0,7.16832 5.831679,13 13,13 7.168319,-10e-7 13,-5.83168 13,-13 0,-7.16832 -5.831681,-13 -13,-13 z m 0,6 c 3.864,0 7,3.136 7,7 0,3.864 -3.136,7 -7,7 -3.864,0 -7,-3.136 -7,-7 0,-3.864 3.136,-7 7,-7 z"
         id="path3315"
         style="opacity:0.05;fill:black;fill-opacity:1;stroke:none" />
    </g>
    <path
       d="M 47.556941,33.056941 35.969867,18.840762 24.440772,33.056941 l 5.058087,0 0,14.5 13.000001,0 0,-14.5 5.058081,0 z"
       id="path2426"
       style="fill:url(#linearGradient2582);fill-opacity:1;fill-rule:nonzero;stroke:url(#linearGradient2584);stroke-width:0.88611871;stroke-linecap:round;stroke-linejoin:round;stroke-miterlimit:4;stroke-opacity:1;stroke-dasharray:none;stroke-dashoffset:0;marker:none;visibility:visible;display:inline;overflow:visible" />
    <path
       d="m 45.634199,32.056941 -9.633008,-11.874601 -9.717146,11.874601 4.214814,0 0,15.5 11.000001,0 0,-15.5 4.135339,0 z"
       id="path2428"
       style="opacity:0.4;fill:none;stroke:url(#linearGradient2579);stroke-width:0.88611871;stroke-linecap:butt;stroke-linejoin:miter;stroke-miterlimit:4;stroke-opacity:1;stroke-dasharray:none;stroke-dashoffset:0;marker:none;visibility:visible;display:inline;overflow:visible" />
  </g>
</svg>

<?xml version="1.0" encoding="UTF-8" standalone="no"?>
<!-- Created with Inkscape (http://www.inkscape.org/) -->
<svg
   xmlns:svg="http://www.w3.org/2000/svg"
   xmlns="http://www.w3.org/2000/svg"
   xmlns:xlink="http://www.w3.org/1999/xlink"
   version="1.0"
   width="48"
   height="48"
   id="svg2531">
  <defs
     id="defs2533">
    <linearGradient
       id="linearGradient5128">
      <stop
         id="stop5130"
         style="stop-color:#e5e5e5;stop-opacity:1"
         offset="0" />
      <stop
         id="stop5132"
         style="stop-color:#ababab;stop-opacity:1"
         offset="1" />
    </linearGradient>
    <linearGradient
       x1="86.132919"
       y1="105.105"
       x2="84.63858"
       y2="20.895"
       id="linearGradient2477"
       xlink:href="#linearGradient5128"
       gradientUnits="userSpaceOnUse"
       gradientTransform="matrix(0.3244803,0,0,0.3244803,3.2332655,2.5577454)" />
    <linearGradient
       id="linearGradient3397">
      <stop
         id="stop3399"
         style="stop-color:#aaaaaa;stop-opacity:1"
         offset="0" />
      <stop
         id="stop3401"
         style="stop-color:#8c8c8c;stop-opacity:1"
         offset="1" />
    </linearGradient>
    <linearGradient
       x1="37.201294"
       y1="1"
       x2="37.201294"
       y2="45"
       id="linearGradient2482"
       xlink:href="#linearGradient3397"
       gradientUnits="userSpaceOnUse" />
    <linearGradient
       x1="63.9995"
       y1="3.1001"
       x2="63.9995"
       y2="122.8994"
       id="linearGradient3309"
       gradientUnits="userSpaceOnUse">
      <stop
         id="stop3311"
         style="stop-color:#f6f6f6;stop-opacity:1"
         offset="0" />
      <stop
         id="stop3313"
         style="stop-color:#d2d2d2;stop-opacity:1"
         offset="1" />
    </linearGradient>
    <linearGradient
       x1="20.758585"
       y1="1"
       x2="20.758585"
       y2="45.017357"
       id="linearGradient2480"
       xlink:href="#linearGradient3309"
       gradientUnits="userSpaceOnUse" />
    <linearGradient
       id="linearGradient10691">
      <stop
         id="stop10693"
         style="stop-color:#000000;stop-opacity:1"
         offset="0" />
      <stop
         id="stop10695"
         style="stop-color:#000000;stop-opacity:0"
         offset="1" />
    </linearGradient>
    <radialGradient
       cx="6.702713"
       cy="73.615715"
       r="7.228416"
       fx="6.702713"
       fy="73.615715"
       id="radialGradient2485"
       xlink:href="#linearGradient10691"
       gradientUnits="userSpaceOnUse"
       gradientTransform="matrix(3.3202297,0,0,0.6917145,1.7454545,-7.9210547)" />
    <linearGradient
       id="linearGradient4222">
      <stop
         id="stop4224"
         style="stop-color:#ffffff;stop-opacity:1"
         offset="0" />
      <stop
         id="stop4226"
         style="stop-color:#ffffff;stop-opacity:0"
         offset="1" />
    </linearGradient>
    <linearGradient
       id="linearGradient5432">
      <stop
         id="stop5434"
         style="stop-color:#ce5c00;stop-opacity:1"
         offset="0" />
      <stop
         id="stop5436"
         style="stop-color:#ce5c00;stop-opacity:0"
         offset="1" />
    </linearGradient>
    <linearGradient
       id="linearGradient2442">
      <stop
         id="stop2444"
         style="stop-color:#fcaf3e;stop-opacity:1"
         offset="0" />
      <stop
         id="stop2446"
         style="stop-color:#f57900;stop-opacity:0"
         offset="1" />
    </linearGradient>
    <linearGradient
       x1="22.720091"
       y1="26.022907"
       x2="1.4801675"
       y2="26.022907"
       id="linearGradient2579"
       xlink:href="#linearGradient4222"
       gradientUnits="userSpaceOnUse"
       gradientTransform="matrix(0,-0.702471,-0.675828,0,53.58587,48.860491)" />
    <linearGradient
       x1="23.177069"
       y1="23.890966"
       x2="49.242626"
       y2="23.890966"
       id="linearGradient2582"
       xlink:href="#linearGradient2442"
       gradientUnits="userSpaceOnUse"
       gradientTransform="matrix(0,0.6056796,-0.5854108,0,49.984886,17.731689)" />
    <linearGradient
       x1="22.760281"
       y1="29.13673"
       x2="22.760281"
       y2="42.241817"
       id="linearGradient2584"
       xlink:href="#linearGradient5432"
       gradientUnits="userSpaceOnUse"
       gradientTransform="matrix(1.1627077,0,0,1.2029644,9.535304,-3.2584615)" />
  </defs>
  <g
     id="layer1">
    <g
       id="g2569">
      <path
         d="M 47.999999,43 C 47.999999,45.761424 37.254832,48 23.999999,48 C 10.745166,48 0,45.761424 0,43 C 0,40.238577 10.745166,38 23.999999,38 C 37.254832,38 47.999999,40.238577 47.999999,43 z"
         id="path10689"
         style="opacity:0.2;fill:url(#radialGradient2485);fill-opacity:1;fill-rule:nonzero;stroke:none;stroke-width:0.80000001;stroke-linecap:butt;stroke-linejoin:miter;marker:none;marker-start:none;marker-mid:none;marker-end:none;stroke-miterlimit:4;stroke-dashoffset:0;stroke-opacity:1;visibility:visible;display:inline;overflow:visible" />
      <path
         d="M 21.03125,1.5 C 20.18512,1.5 19.5,2.2019069 19.5,3.0625 L 19.5,6.09375 C 17.987058,6.4968555 16.541437,7.105736 15.21875,7.875 L 13.0625,5.71875 C 12.758234,5.4144843 12.393747,5.2533367 12,5.25 C 11.606253,5.2466633 11.205402,5.3883479 10.90625,5.6875 L 6.6875,9.90625 C 6.0891956,10.504554 6.1102186,11.453968 6.71875,12.0625 L 8.875,14.21875 C 8.105736,15.541437 7.4968555,16.987058 7.09375,18.5 L 4.0625,18.5 C 3.2019067,18.5 2.5,19.185119 2.5,20.03125 L 2.5,25.96875 C 2.5,26.81488 3.201907,27.5 4.0625,27.5 L 7.09375,27.5 C 7.4968555,29.012942 8.105736,30.458563 8.875,31.78125 L 6.71875,33.9375 C 6.1102187,34.546031 6.0891959,35.495445 6.6875,36.09375 L 10.90625,40.3125 C 11.504554,40.910804 12.453968,40.889779 13.0625,40.28125 L 15.21875,38.125 C 16.541437,38.894264 17.987058,39.503144 19.5,39.90625 L 19.5,42.9375 C 19.5,43.798093 20.185119,44.5 21.03125,44.5 L 26.96875,44.5 C 27.81488,44.5 28.5,43.798093 28.5,42.9375 L 28.5,39.90625 C 30.012942,39.503144 31.458563,38.894264 32.78125,38.125 L 34.9375,40.28125 C 35.546031,40.889781 36.495446,40.910805 37.09375,40.3125 L 41.3125,36.09375 C 41.910804,35.495446 41.889781,34.546031 41.28125,33.9375 L 39.125,31.78125 C 39.894264,30.458563 40.503144,29.012942 40.90625,27.5 L 43.9375,27.5 C 44.798093,27.5 45.5,26.814881 45.5,25.96875 L 45.5,20.03125 C 45.5,19.18512 44.798093,18.5 43.9375,18.5 L 40.90625,18.5 C 40.503144,16.987058 39.894264,15.541437 39.125,14.21875 L 41.28125,12.0625 C 41.889781,11.453969 41.910805,10.504554 41.3125,9.90625 L 37.09375,5.6875 C 36.495446,5.0891956 35.54603,5.1102187 34.9375,5.71875 L 32.78125,7.875 C 31.458563,7.105736 30.012942,6.4968555 28.5,6.09375 L 28.5,3.0625 C 28.5,2.2019067 27.814881,1.5 26.96875,1.5 L 21.03125,1.5 z M 24,16.5 C 27.588,16.5 30.5,19.412 30.5,23 C 30.5,26.588 27.588,29.5 24,29.5 C 20.412,29.5 17.5,26.588 17.5,23 C 17.5,19.412 20.412,16.5 24,16.5 z"
         id="rect3267"
         style="fill:url(#linearGradient2480);fill-opacity:1;fill-rule:nonzero;stroke:url(#linearGradient2482);stroke-width:1;stroke-linecap:butt;stroke-linejoin:round;marker:none;marker-start:none;marker-mid:none;marker-end:none;stroke-miterlimit:4;stroke-dasharray:none;stroke-dashoffset:0;stroke-opacity:1;visibility:visible;display:block;overflow:visible;enable-background:accumulate" />
      <path
         d="M 24,9.5 C 16.556099,9.5 10.5,15.556099 10.5,23 C 10.5,30.4439 16.556099,36.5 24,36.5 C 31.443901,36.5 37.5,30.4439 37.5,23 C 37.5,15.556099 31.443901,9.5 24,9.5 z"
         id="path28"
         style="fill:none;stroke:url(#linearGradient2477);stroke-width:1;stroke-miterlimit:4;stroke-dasharray:none" />
      <path
         d="M 24,10 C 16.831679,9.9999995 11,15.83168 11,23 C 11,30.16832 16.831679,36 24,36 C 31.168319,35.999999 37,30.16832 37,23 C 37,15.83168 31.168319,10 24,10 z M 24,16 C 27.864,16 31,19.136 31,23 C 31,26.864 27.864,30 24,30 C 20.136,30 17,26.864 17,23 C 17,19.136 20.136,16 24,16 z"
         id="path3315"
         style="opacity:0.05;fill:#000000;fill-opacity:1;stroke:none;stroke-width:0.99956679;stroke-miterlimit:4;stroke-dasharray:none" />
    </g>
    <path
       d="M 47.556941,33.056941 L 35.969867,18.840762 L 24.440772,33.056941 L 29.498859,33.056941 L 29.498859,47.556941 L 42.49886,47.556941 L 42.49886,33.056941 L 47.556941,33.056941 z"
       id="path2426"
       style="fill:url(#linearGradient2582);fill-opacity:1;fill-rule:nonzero;stroke:url(#linearGradient2584);stroke-width:0.88611871;stroke-linecap:round;stroke-linejoin:round;marker:none;marker-start:none;marker-mid:none;marker-end:none;stroke-miterlimit:4;stroke-dasharray:none;stroke-dashoffset:0;stroke-opacity:1;visibility:visible;display:inline;overflow:visible" />
    <path
       d="M 45.634199,32.056941 L 36.001191,20.18234 L 26.284045,32.056941 L 30.498859,32.056941 L 30.498859,47.556941 L 41.49886,47.556941 L 41.49886,32.056941 L 45.634199,32.056941 z"
       id="path2428"
       style="opacity:0.4;fill:none;fill-opacity:1;fill-rule:nonzero;stroke:url(#linearGradient2579);stroke-width:0.88611871;stroke-linecap:butt;stroke-linejoin:miter;marker:none;marker-start:none;marker-mid:none;marker-end:none;stroke-miterlimit:4;stroke-dasharray:none;stroke-dashoffset:0;stroke-opacity:1;visibility:visible;display:inline;overflow:visible" />
  </g>
</svg>
